X:1
T:Title
%%score 1 2 3 4
L:1/8
M:4/2
K:F
V:1 treble nm="Part_1"
V:2 treble nm="Part_2"
V:3 bass nm="Part_3"
V:4 bass nm="Part_4"
V:1
 d12 A4 | B12- B ^FFF | G12 ^F2 E2 | ^F8 G8 |[M:4/4] z8 |[M:4/2] z16 | z16 | z4 d8 d4 | %8
[M:4/4] B4 d4 |[M:4/2] c6 c2 c8 | d4 c4 B4 c4 | c4 B2 AG A6 A2 | G8 z8 | z16 | z16 | %15
[M:6/2] z8 z4 A8 =B4 |[M:4/2] c8 d8- | d4 A2 A2 B8 | A8 z8 | A4 B4 A8 | A4 D4- D4 E4 | G12 ^F4 | %22
[M:4/4] G8 |[M:4/2] z4 d2 e2 f2 e2 d2 B2 | c4 c4 A2 B2 c2 B2 | A2 G2 F2 ED E8 | D8 z4 A3 A | %27
 B2 A2 B2 c2 d4 d4 | z4 d2 e2 f6 _e2 | e2 d2 c4 d4 d2 d2 | f6 ^c2 c2 c2 d4 | e8 z8 |[M:4/4] z8 | %33
[M:4/2] c4 d4 e6 A2 | A4 A4 d8 |[M:4/4] ^c8 |[M:4/2] z16 |[M:4/4] z8 |[M:4/2] A4 =B4 ^c8 | %39
 d8 =e4 c4 | =B8 A8 | z8 A4 F4 | E16 | D16 | d4 B4 A8- |[M:4/4] A8 |[M:4/2] G16 |] %47
V:2
 z16 | z16 | z8 d8 | d4 A4 B3 ABABc |[M:4/4] A8 |[M:4/2] G4 B8 A4 | c8 d8 | z4 B8 F4 | %8
[M:4/4] G4 B4 |[M:4/2] A6 A2 A8 | B4 A4 G4 E4 | ^F2 D2 G8 F4 | G4 B8 c4 | d8 B8 | GFGA B8 d4 | %15
[M:6/2] c8 c8 z8 |[M:4/2] z16 | z16 | z4 A8 B4 | ^F4 G8 F2 E2 | ^F4 F4 d4 c4 | B4 A2 G2 A8 | %22
[M:4/4] G8 |[M:4/2] z4 B2 c2 d2 c2 B2 G2 | A4 A4 F2 G2 A2 G2 | F2 E2 D6 ^C=B, C4 | D8 z4 F3 F | %27
 G2 A2 G2 G2 ^F4 F4 | B2 c2 d6 c2 c2 B2 | A2 B4 A2 B8 | z8 e2 e2 f4- | f2 ^c2 c2 c2 d8 | %32
[M:4/4] c8 |[M:4/2] z16 | z16 |[M:4/4] z4 E2 E2 |[M:4/2] A6 E2 E2 E2 F4 |[M:4/4] E8 | %38
[M:4/2] z4 G8 G4 | ^F6 F2 G2 E2 A4- | A4 G4 A8 | A4 F4 ^C4 D4- | D4 ^C2 =B,2 C8 | D8 d4 B4 | %44
 ^F4 G8 F2 E2 |[M:4/4] ^F8 |[M:4/2] G16 |] %47
V:3
 z16 | z16 | z16 | z16 |[M:4/4] z8 |[M:4/2] z4 G,8 F,4 | _E,8 D,8 | G,12 D,4 |[M:4/4] _E,4 D,4 | %9
[M:4/2] F,6 F,2 F,8 | B,,4 C,4 _E,4 C,4 | D,12 D,4 | G,,4 G,8 A,4 | B,8 G,8 | _E,12 D,C,D,E, | %15
[M:6/2] F,8 F,8 z8 |[M:4/2] z16 | z16 | z4 D,8 D,4 | D,16 | D,8 z8 | z16 |[M:4/4] z8 | %23
[M:4/2] B,,8 B,,8 | F,8 F,8 | F,4 B,4 A,8 | D,8 z4 D,3 D, | G,2 F,2 _E,2 E,2 D,4 D,4 | %28
 G,2 A,2 B,6 _E,2 E,2 E,2 | F,8 B,,8 | z16 | z16 |[M:4/4] z8 |[M:4/2] A,4 F,4 E,6 ^C,2 | %34
 D,4 C,4 =B,,8 |[M:4/4] A,,8 |[M:4/2] z16 |[M:4/4] z8 |[M:4/2] A,4 G,4 E,8 | D,8 C,4 A,,4 | %40
 E,8 A,,8 | A,8 A,8 | A,16 | D,8 D,8 | D,8 D,8- |[M:4/4] D,8 |[M:4/2] D,16 |] %47
V:4
 G,8 ^F,8 | G,8 D,8 | _E,8 D,8- | D,8 G,8 |[M:4/4] D,8 |[M:4/2] G,12 F,4 | _E,8 D,8 | G,12 D,4 | %8
[M:4/4] _E,4 D,4 |[M:4/2] F,6 F,2 F,8 | B,,4 C,4 _E,4 C,4 | D,12 D,4 | G,,4 G,8 A,4 | B,8 G,8 | %14
 _E,12 D,4 |[M:6/2] F,8 F,8 F,4 D,4 |[M:4/2] C,4 B,,2 A,,2 G,,2 A,,2 B,,2 C,2 | D,8 G,,8 | %18
 D,8 D,8 | D,16 | D,8 D,4 A,4 | G,8 D,8 |[M:4/4] G,8 |[M:4/2] B,,8 B,,8 | F,8 F,8 | F,4 B,4 A,8 | %26
 D,8 D,8 | G,2 F,2 _E,2 E,2 D,4 D,4 | G,2 A,2 B,6 _E,2 E,2 E,2 | F,8 B,,8 | D,4 A,,8 D,4 | %31
 A,,8 B,,8 |[M:4/4] A,,8 |[M:4/2] A,4 F,4 E,6 ^C,2 | D,4 C,4 =B,,8 |[M:4/4] A,,8 | %36
[M:4/2] A,,4 ^C,8 D,4 |[M:4/4] A,,8 |[M:4/2] A,4 G,4 =E,8 | D,8 C,4 A,,4 | E,8 A,,8 | A,16 | A,16 | %43
 D,8 D,8- | D,8 D,8- |[M:4/4] D,8 |[M:4/2] G,,16 |] %47

